Origami/64x64/apps/ubiquity-kde.svg

<svg width="64" height="64" version="1.1" viewBox="0 0 64 64" xmlns="http://www.w3.org/2000/svg">
 <path d="m32 5c-15.512 0-28 12.488-28 28s12.488 28 28 28 28-12.488 28-28-12.488-28-28-28zm0 16a12 12 0 0 1 12 12 12 12 0 0 1 -12 12 12 12 0 0 1 -12 -12 12 12 0 0 1 12 -12z" style="opacity:.2"/>
 <path d="m32 17a15 15 0 0 0 -15 15 15 15 0 0 0 15 15 15 15 0 0 0 15 -15 15 15 0 0 0 -15 -15zm0 9c3.3138 0 6 2.6862 6 6s-2.6862 6-6 6-6-2.6862-6-6 2.6862-6 6-6z" style="fill:#858585"/>
 <path d="m32 4c-15.512 0-28 12.488-28 28s12.488 28 28 28 28-12.488 28-28-12.488-28-28-28zm0 16a12 12 0 0 1 12 12 12 12 0 0 1 -12 12 12 12 0 0 1 -12 -12 12 12 0 0 1 12 -12z" style="fill:#e4e4e4"/>
 <path d="M 20.025391,32.5 A 12,12 0 0 0 20,33 12,12 0 0 0 32,45 12,12 0 0 0 44,33 12,12 0 0 0 43.978516,32.595703 12,12 0 0 1 32,44 12,12 0 0 1 20.025391,32.5 Z M 32,4 C 16.488,4 4,16.488 4,32 c 0,0.11345 0.01128,0.224113 0.017578,0.335938 C 4.3691213,17.134181 16.710728,5 32,5 47.289272,5 59.630879,17.134181 59.982422,32.335938 59.98872,32.224113 60,32.11345 60,32 60,16.488 47.512,4 32,4 Z" style="fill:#ffffff;opacity:.2"/>
 <circle cx="48" cy="46" r="16" style="fill:#42a1cd"/>
 <path d="m47.966 54-5.9656-8h4v-8h4v8h4z" style="fill:#ffffff"/>
 <path d="M 32.025391,46.5 A 16,16.001894 0 0 0 32,46.998106 16,16.001894 0 0 0 48,63 16,16.001894 0 0 0 64,46.998106 16,16.001894 0 0 0 63.982422,46.50586 16,16.001894 0 0 1 48,61.999882 16,16.001894 0 0 1 32.025391,46.5 Z" style="opacity:.2"/>
</svg>

<svg xmlns="http://www.w3.org/2000/svg" width="64" height="64" version="1.1" viewBox="0 0 64 64">
 <path style="opacity:0.2" d="M 32,5 C 16.488,5 4,17.488 4,33 4,48.512 16.488,61 32,61 47.512,61 60,48.512 60,33 60,17.488 47.512,5 32,5 Z m 0,16 A 12,12 0 0 1 44,33 12,12 0 0 1 32,45 12,12 0 0 1 20,33 12,12 0 0 1 32,21 Z"/>
 <path style="fill:#858585" d="M 32,17 A 15,15 0 0 0 17,32 15,15 0 0 0 32,47 15,15 0 0 0 47,32 15,15 0 0 0 32,17 Z m 0,9 c 3.3138,0 6,2.6862 6,6 0,3.3138 -2.6862,6 -6,6 -3.3138,0 -6,-2.6862 -6,-6 0,-3.3138 2.6862,-6 6,-6 z"/>
 <path style="fill:#cccccc" d="M 32,4 C 16.488,4 4,16.488 4,32 4,47.512 16.488,60 32,60 47.512,60 60,47.512 60,32 60,16.488 47.512,4 32,4 Z m 0,16 A 12,12 0 0 1 44,32 12,12 0 0 1 32,44 12,12 0 0 1 20,32 12,12 0 0 1 32,20 Z"/>
 <path style="opacity:0.2;fill:#ffffff" d="M 20.025391,32.5 A 12,12 0 0 0 20,33 12,12 0 0 0 32,45 12,12 0 0 0 44,33 12,12 0 0 0 43.978516,32.595703 12,12 0 0 1 32,44 12,12 0 0 1 20.025391,32.5 Z M 32,4 C 16.488,4 4,16.488 4,32 c 0,0.11345 0.01128,0.224113 0.017578,0.335938 C 4.3691213,17.134181 16.710728,5 32,5 47.289272,5 59.630879,17.134181 59.982422,32.335938 59.98872,32.224113 60,32.11345 60,32 60,16.488 47.512,4 32,4 Z"/>
 <circle style="fill:#42a1cd" cx="48" cy="46" r="16"/>
 <path style="fill:#ffffff" d="m 47.966,54 -5.9656,-8 4,0 0,-8 4,0 0,8 4,0 z"/>
 <path style="opacity:0.2" d="M 32.025391,46.5 A 16,16.001894 0 0 0 32,46.998106 16,16.001894 0 0 0 48,63 16,16.001894 0 0 0 64,46.998106 16,16.001894 0 0 0 63.982422,46.50586 16,16.001894 0 0 1 48,61.999882 16,16.001894 0 0 1 32.025391,46.5 Z"/>
</svg>
